Icons/Line/si_Lock_alt.svg

<svg width="24" height="24" fill="none" xmlns="http://www.w3.org/2000/svg"><path d="M4.6 11h14.8c.88 0 1.6.72 1.6 1.6v6c0 1.32-1.08 2.4-2.4 2.4H5.4C4.08 21 3 19.92 3 18.6v-6c0-.88.72-1.6 1.6-1.6Z" stroke="#000" stroke-width="1.5" stroke-miterlimit="10"/><path d="M12 17a1 1 0 1 0 0-2 1 1 0 0 0 0 2Z" stroke="#000" stroke-width="1.5" stroke-miterlimit="10"/><path d="M8 11V7c0-2.21 1.79-4 4-4s4 1.79 4 4v4" stroke="#000" stroke-width="1.5" stroke-miterlimit="10" stroke-linecap="round"/></svg>

<svg width="24" height="24" viewBox="0 0 24 24" fill="none" xmlns="http://www.w3.org/2000/svg">
<path d="M4.6 11H19.4C20.28 11 21 11.72 21 12.6V18.6C21 19.92 19.92 21 18.6 21H5.4C4.08 21 3 19.92 3 18.6V12.6C3 11.72 3.72 11 4.6 11Z" stroke="black" stroke-width="1.5" stroke-miterlimit="10"/>
<path d="M12 17C12.5523 17 13 16.5523 13 16C13 15.4477 12.5523 15 12 15C11.4477 15 11 15.4477 11 16C11 16.5523 11.4477 17 12 17Z" stroke="black" stroke-width="1.5" stroke-miterlimit="10"/>
<path d="M8 11V7C8 4.79 9.79 3 12 3C14.21 3 16 4.79 16 7V11" stroke="black" stroke-width="1.5" stroke-miterlimit="10" stroke-linecap="round"/>
</svg>
